X: 1
T:Setting a Course for Lewis  "setlewis"
M:6/8
L:1/8
Q:80
C:Trad
S:Slow Air
K:HP
[| {g}f3/4g/4|
{ag}a3/2g/2{a}f{gef}e/2d3/2A|
{g}B/2d3/2{c}d{gBd}B/2{G}A3/2{g}f3/4g/4|  !
{ag}a3/2g/2{a}f{gef}e/2d3/2A|
{GdG}B/2g3/2f{gef}e2{g}f3/4g/4|
{ag}a3/2g/2{a}f{gef}e/2d3/2A|  !
{g}B/2d3/2{c}d{gBd}B/2{G}A3/2{GAG}A|
{g}B3/2c/2d{g}A2{g}f/2g/4|
{ag}a{fg}f{g}e{Gdc}d2:|  !
{g}d3/4c/4|
{g}B2{Gdc}d{g}A2{GAG}A|
{g}B/2d3/2{c}d{gBd}B/2{G}A3/2{GAG}A|  !
{g}B3/2c/2d{gdc}d2{g}e3/4f/4|
{gf}g{a}f3/2d/2{gef}e2{gf}g|
{g}f3/2e/2{g}d{g}f/2a3/2f|  !
{g}B/2d3/2{c}d{gBd}B/2{G}A3/2{GAG}A|
{g}B3/2c/2d{g}A3{g}f3/4g/4|
{ag}a{fg}f{g}e{Gdc}d2:|  !
